!!!!SEGMENT: pl-kk--kk-i-7--056-002_certon-pierre--missa-regnum-mundi-et-in-terra.krn
!!!cenid: 16xx:888
!!!COM: Certon, Pierre
!!!COM-rismID:
!!!CDT: ~1510-1572/02/23
!!!CNT: French
!!!OPR: Missa Regnum Mundi
!!!OTL: Et in terra
!!!OMV: 002
!!!PDT:
!!!AGN: Sacred; Mass
!!!SMS-siglum: PL-Kk
!!!SMS-shelfmark: Kk.I.7
!!!SMS-shelfwork: 056-002 M
!!!SMS-variant:
!!!SMS-altvar:
!!!NIFC-rismSourceID: 300258133
!!!NIFC-islandoraID: pl-kk:1956
!!!URL-pdf-islandora: https://repozytorium.nifc.pl/islandora/object/pl-kk%3A1956/datastream/PDF/view
!!!URL-scan: https://polish.musicsources.pl/pl/lokalizacje/galeria/rekopisy/6140 @EN{Scan on Polish Music Herritage in Open Access Website} @PL{Skany w portalu Dziedzictwo Muzyki Polskiej w otwartym dostępie}
!!!ONB-nifc: UWAGA: C (skan 0054-0055, s.100-103), A (0138-0139, s.96-99), T(0214-0216, s.91-94), B(0301-0302, s.89-91). Części Mszy: 1. Kyrie, 2. Et in terra, 3. Sanctus, 4. Agnus Dei. Agnus III" rozpisany na 5 głosów. Dodatkowy głos zapisany w księdze T na stronie 94
!!!AIN: 1 alto 1 bass 1 soprn 1 tenor
!!!key:
**kern	**text	**kern	**text	**kern	**text	**kern	**text
*part4	*part4	*part3	*part3	*part2	*part2	*part1	*part1
*staff4	*staff4	*staff3	*staff3	*staff2	*staff2	*staff1	*staff1
*group1	*	*group1	*	*group1	*	*group1	*
*Ibass	*	*Itenor	*	*Ialto	*	*Isoprn	*
*I"BASSVS.	*	*I"TENOR	*	*I"ALTVS.	*	*I"CANTVS.	*
*I'B	*	*I'T	*	*I'A	*	*I'S	*
*clefC4	*	*clefC3	*	*clefC2	*	*clefG2	*
*k[b-]	*	*k[b-]	*	*k[b-]	*	*k[b-]	*
*d:	*	*d:	*	*d:	*	*d:	*
*M2/1	*	*M2/1	*	*M2/1	*	*M2/1	*
*met(C|)	*	*met(C|)	*	*met(C|)	*	*met(C|)	*
=1-	=1-	=1-	=1-	=1-	=1-	=1-	=1-
!	!	!	!	!LO:TX:t=P:problem=przy kluczu b- B-	!	!	!
1.G	Et	1.G	Et	1.d	Et	1.g	Et
2G/	in	2G/	in	2d/	in	2g/	in
=2-	=2-	=2-	=2-	=2-	=2-	=2-	=2-
1G	ter-	1d	ter-	1g	ter-	1b-	ter-
!	!	!LO:TX:t=P:problem=kreska pseudotaktowa	!	!LO:TX:t=P:problem=kreska pseudotaktowa	!	!	!
1E	-ra	1en	-ra	1g	-ra	1cc	-ra
=3-	=3-	=3-	=3-	=3-	=3-	=3-	=3-
*	*	*2\right	*	*2\right	*	*	*
!	!	!	!	!	!	!LO:TX:t=P:problem=kreska pseudotaktowa	!
1.D	pax	2.f\	pax-	2.a\	pax	00dd	pax
.	.	4e\	.	4g\	ho-	.	.
.	.	4d\	.	2a\	-mi-	.	.
.	.	4c\	.	.	.	.	.
!LO:TX:t=P:problem=kreska pseudotaktowa	!	!	!	!	!	!	!
2D/	ho-	2.d\	-ho-	1b-\	.	.	.
=4-	=4-	=4-	=4-	=4-	=4-	=4-	=4-
1F	-mi-	.	.	.	.	.	.
.	.	4c/	.	.	.	.	.
.	.	4B-/	.	1a	.	.	.
.	.	4A/	.	.	.	.	.
1G	.	2.B-/	-mi-	.	.	.	.
.	.	.	.	2g\	-ni-	.	.
.	.	4B-/	-ni-	.	.	.	.
=5-	=5-	=5-	=5-	=5-	=5-	=5-	=5-
!	!	!	!	!LO:TX:t=P:problem=kreska pseudotaktowa	!	!	!
2.D/	.	2A/	-b(us)	1a	-b(us)	2r	.
*	*	*	*ij	*	*	*2\right	*
.	.	2.f\	ho-	.	.	2dd\	Ho-
4E/	.	.	.	.	.	.	.
2F/	.	.	.	2r	.	1dd	.
.	.	4e\	.	.	.	.	.
2G/	.	1d\	-mi-	2g\	bo-	.	.
=6-	=6-	=6-	=6-	=6-	=6-	=6-	=6-
!	!	!	!	!	!	!LO:TX:t=P:problem=kreska pseudotaktowa	!
2.E/	.	.	.	2g\	-nae	1ee	.
.	.	2c\	-ni-	2g\	vo-	.	.
4E/	-ni-	.	.	.	.	.	.
!LO:TX:t=P:problem=kreska pseudotaktowa	!	!LO:TX:t=P:problem=kreska pseudotaktowa	!	!	!	!	!
0D	-b(us)	1d	-b(us)	2.f\	-lun-	2.ff\	.
*	*	*	*Xij	*	*	*	*
.	.	.	.	4g\	.	4ee\	.
=7-	=7-	=7-	=7-	=7-	=7-	=7-	=7-
.	.	2r	.	2a\	.	4dd\	.
.	.	.	.	.	.	4cc\	.
.	.	2d\	bo-	2.b-\	-ta-	2.dd\	-mi-
2rF	.	1.d	-nae	.	.	.	.
.	.	.	.	4a\	.	4cc\	.
2G/	bo-	.	.	4g\	.	4b-/	.
!	!	!	!	!LO:TX:t=P:problem=kreska pseudotaktowa	!	!	!
.	.	.	.	4f\	.	4a/	.
=8-	=8-	=8-	=8-	=8-	=8-	=8-	=8-
!	!	!	!	!	!	!LO:TX:t=P:problem=kreska pseudotaktowa	!
2G/	-nae	.	.	1g	.	1b-	-ni-
2G/	vo-	2e\	-vo-	.	.	.	.
1F	-lun-	2.f\	-lun-	1a	.	2a,</	-bus
.	.	.	.	.	.	2a/	bo-
.	.	4e\	.	.	.	.	.
=9-	=9-	=9-	=9-	=9-	=9-	=9-	=9-
*2\right	*	*	*	*	*	*	*
2.B-\	-ta-	4d\	.	1f	.	2.dd\	-nae
.	.	4c\	.	.	.	.	.
.	.	2.d\	-ta-	.	.	.	.
4A/	.	.	.	.	.	4cc\	.
2G/	.	.	.	2g\	.	2b-/	vo-
.	.	4c/	.	.	.	.	.
!LO:TX:t=P:problem=kreska pseudotaktowa	!	!LO:TX:t=P:problem=kreska pseudotaktowa	!	!	!	!	!
2F/	.	2A/	.	2c/	.	2.a/	-lun-
=10-	=10-	=10-	=10-	=10-	=10-	=10-	=10-
2E/	.	2B-/	.	1e	.	.	.
.	.	.	.	.	.	4g/	.
2C/	.	2c/	.	.	.	1g	-ta-
!LO:TX:t=P:problem=kreska pseudotaktowa	!	!	!	!LO:TX:t=P:problem=kreska pseudotaktowa	!	!	!
1D	-tis	1A	.	1d	.	.	.
.	.	.	.	.	.	2f#X/	.
=11-	=11-	=11-	=11-	=11-	=11-	=11-	=11-
!	!	!LO:TX:t=P:problem=kreska pseudotaktowa	!	!	!	!LO:TX:t=P:problem=kreska pseudotaktowa	!
2rF	.	1G	-tis.	2B-,</	-tis	1g	-tis.
2G/	Lau-	.	.	2d/	Lau-	.	.
2F/	-da-	2rF	.	2d/	-da-	2rg	.
2E/	-m(us)	2G/	Lau-	2c/	-m(us)	1g/	Lau-
=12-	=12-	=12-	=12-	=12-	=12-	=12-	=12-
!LO:TX:t=P:problem=kreska pseudotaktowa	!	!	!	!LO:TX:t=P:problem=kreska pseudotaktowa	!	!	!
1D	Te	2B-/	-da-	0d	Te.	.	.
.	.	2A/	-m(us)	.	.	2fny/	.
2rF	.	4G/	Te	.	.	1b-	.
.	.	4A/	.	.	.	.	.
2G/	be-	4B-/	.	.	.	.	.
.	.	4c/	.	.	.	.	.
!	!	!	!	!LO:LB:g=original	!	!	!
=13-	=13-	=13-	=13-	=13-	=13-	=13-	=13-
!	!	!	!	!LO:TX:t=P:problem=kreska pseudotaktowa	!	!	!
2G/	-ne-	4d\	.	1r	.	2a/	.
.	.	4e\	.	.	.	.	.
2F/	-di-	1f	.	.	.	1a	-da-
1B-	-ci-	.	.	2rc	.	.	.
.	.	4e\	.	2d/	be-	2g/	mus
.	.	4d\	.	.	.	.	.
=14-	=14-	=14-	=14-	=14-	=14-	=14-	=14-
!	!	!LO:TX:t=P:problem=kreska pseudotaktowa	!	!	!	!LO:TX:t=P:problem=kreska pseudotaktowa	!
2.A\	.	1e	.	2d/	-ne-	00a	Te
!	!	!	!	!LO:TX:t=P:problem=kreska pseudotaktowa	!	!	!
.	.	.	.	2c/	-di-	.	.
!LO:TX:t=P:problem=kreska pseudotaktowa	!	!	!	!	!	!	!
4A\	-m(us)	.	.	.	.	.	.
!LO:LB:g=original	!	!LO:LB:g=original	!	!	!	!	!
4D/	Te	2r	.	1f	-ci-	.	.
4E/	.	.	.	.	.	.	.
4F/	.	2d\	be-	.	.	.	.
4G/	.	.	.	.	.	.	.
=15-	=15-	=15-	=15-	=15-	=15-	=15-	=15-
1A	.	2d\	-ne-	1e	-m(us)	.	.
.	.	2c\	-di-	.	.	.	.
2D,</	.	1.f	-ci-	2d,</	Te	.	.
1d\	a-	.	.	1a\	a-	.	.
=16-	=16-	=16-	=16-	=16-	=16-	=16-	=16-
.	.	.	.	.	.	1r	.
!LO:TX:t=P:problem=kreska pseudotaktowa	!	!	!	!	!	!	!
2d\	-do-	2f\	-mus	2b-\	-do-	.	.
2c\	-ra-	2e\	.	2a\	-ra-	2r	.
2B-\	-m(us)	2d\	.	2g\	-m(us)	1dd\	a-
=17-	=17-	=17-	=17-	=17-	=17-	=17-	=17-
!	!	!LO:TX:t=P:problem=kreska pseudotaktowa	!	!LO:TX:t=P:problem=kreska pseudotaktowa	!	!	!
1A	Te.	1e	Te.	00a	Te.	.	.
!	!	!	!	!	!	!LO:TX:t=P:problem=kreska pseudotaktowa	!
.	.	.	.	.	.	2cc\	-do-
!LO:TX:t=P:problem=kreska pseudotaktowa	!	!	!	!	!	!LO:LB:g=original	!
1D	.	2r	.	.	.	2.ff\	-ra-
.	.	1d\	a-	.	.	.	.
.	.	.	.	.	.	8ee\L	.
.	.	.	.	.	.	8dd\J	.
=18-	=18-	=18-	=18-	=18-	=18-	=18-	=18-
00r	.	.	.	.	.	2ff\	.
.	.	2c\	-do-	.	.	1ee	.
.	.	1f	-ra-	.	.	.	.
.	.	.	.	.	.	1dd\	.
=19-	=19-	=19-	=19-	=19-	=19-	=19-	=19-
!	!	!LO:TX:t=P:problem=kreska pseudotaktowa	!	!	!	!	!
.	.	1e	-m(us)	2rg	.	.	.
!	!	!	!	!	!	!LO:TX:t=P:problem=# above	!
.	.	.	.	2g\	glo-	2cc#X\	-m(us)
!	!	!	!	!	!	!LO:TX:t=P:problem=kreska pseudotaktowa	!
.	.	2.d\	Te	2g\	-ri-	0.dd	.
.	.	.	.	2f\	-fi-	.	.
.	.	4c/	.	.	.	.	.
=20-	=20-	=20-	=20-	=20-	=20-	=20-	=20-
2r	.	4B-/	.	1b-	-ca-	.	.
.	.	4A/	.	.	.	.	.
2G/	glo-	4B-/	.	.	.	.	.
.	.	4c/	.	.	.	.	.
2G/	-ri-	4d\	.	2a\	.	.	.
.	.	4e\	.	.	.	.	.
!LO:TX:t=P:problem=kreska pseudotaktowa	!	!	!	!	!	!	!
2F/	-fi-	1f\	.	1a\	.	.	.
=21-	=21-	=21-	=21-	=21-	=21-	=21-	=21-
1B-	-ca-	.	.	.	.	2r	.
.	.	4e\	.	2g\	-m(us)	2dd\	glo-
.	.	4d\	.	.	.	.	.
!	!	!	!	!LO:TX:t=P:problem=kreska pseudotaktowa	!	!	!
1A	-m(us)	2.e\	.	0a	Te.	2dd\	-ri-
!	!	!	!	!	!	!LO:TX:t=P:problem=kreska pseudotaktowa	!
.	.	.	.	.	.	2ccny\	-fi-
.	.	4e\	.	.	.	.	.
=22-	=22-	=22-	=22-	=22-	=22-	=22-	=22-
!	!	!LO:TX:t=P:problem=kreska pseudotaktowa	!	!	!	!	!
0D	Te	1d,<	.	.	.	0ff	-ca-
.	.	1A	glo-	2rg	.	.	.
*	*	*	*	*	*ij	*	*
.	.	.	.	2a\	glo-	.	.
=23-	=23-	=23-	=23-	=23-	=23-	=23-	=23-
2A\	.	2c\	-ri-	2a\	-ri-	2ee\	.
!	!	!	!	!LO:TX:t=P:problem=kreska pseudotaktowa	!	!	!
2B-\	.	2d\	-fi-	2g\	-fi-	1dd	.
1A	.	2e\	-ca-	2.a\	-ca-	.	.
.	.	2e\	-m(us)	.	.	2cc\	.
.	.	.	.	4g\	.	.	.
=24-	=24-	=24-	=24-	=24-	=24-	=24-	=24-
!LO:TX:t=P:problem=kreska pseudotaktowa	!	!LO:TX:t=P:problem=kreska pseudotaktowa	!	!	!	!	!
*	*	*	*	*	*	*lig	*
1D	.	0d	Te.	4f\	.	1dd	-mus
.	.	.	.	4e\	.	.	.
.	.	.	.	1a	.	.	.
2rF	.	.	.	.	.	1b-	.
2G/	Gra-	.	.	2g\	-m(us)	.	.
*	*	*	*	*	*	*Xlig	*
=25-	=25-	=25-	=25-	=25-	=25-	=25-	=25-
*	*	*	*	*lig	*	*	*
!	!	!	!	!	!	!LO:TX:t=P:problem=kreska pseudotaktowa	!
2G/	-ti-	2r	.	1a	Te.	1a	Te.
*	*	*	*	*	*Xij	*	*
!LO:TX:t=P:problem=kreska pseudotaktowa	!	!	!	!	!	!	!
2F/	-as	2d\	Gra-	.	.	.	.
!	!	!	!	!LO:TX:t=P:problem=kreska pseudotaktowa	!	!	!
2G/	a-	2d\	-ti-	1e	.	00r	.
2A\	-gi-	2c\	-as	.	.	.	.
*	*	*	*	*Xlig	*	*	*
=26-	=26-	=26-	=26-	=26-	=26-	=26-	=26-
1.B-	-mus	2.d\	a-	1rb	.	.	.
.	.	4e\	-gi-	.	.	.	.
.	.	2f,<\	-m(us)	2r	.	.	.
4A/	.	1g\	Ti-	2d/	pro-	.	.
4G/	.	.	.	.	.	.	.
=27-	=27-	=27-	=27-	=27-	=27-	=27-	=27-
1A	Ti-	.	.	2d/	-pter	.	.
.	.	2f\	.	2c/	ma-	.	.
!LO:TX:t=P:problem=kreska pseudotaktowa	!	!	!	!LO:TX:t=P:problem=kreska pseudotaktowa	!	!LO:TX:t=P:problem=kreska pseudotaktowa	!
1G	-bi	2g,<\	-bi	1d	-gna(m)	0rg	.
.	.	2G/	a-	.	.	.	.
=28-	=28-	=28-	=28-	=28-	=28-	=28-	=28-
1G	pro-	2.B-/	-gi-	2rd	.	.	.
*	*	*	*	*	*ij	*	*
.	.	.	.	2d/	pro-	.	.
.	.	4B-/	-m(us)	.	.	.	.
2F/	-pter	2A/	Ti-	2d/	-pter	2rg	.
!	!	!	!	!LO:TX:t=P:problem=kreska pseudotaktowa	!	!	!
2E/	.	2G/	.	2c/	ma-	2g/	pro-
!	!	!	!	!LO:LB:g=original	!	!	!
=29-	=29-	=29-	=29-	=29-	=29-	=29-	=29-
!LO:TX:t=P:problem=kreska pseudotaktowa	!	!LO:TX:t=P:problem=kreska pseudotaktowa	!	!LO:TX:t=P:problem=kreska pseudotaktowa	!	!	!
1D	ma-	1A	-bi.	1d,<	-gna(m)	2g/	-pter
*	*	*	*	*	*Xij	*	*
.	.	.	.	.	.	2f/	ma-
!	!	!LO:LB:g=original	!	!	!	!	!
1G	-gnam	2r	.	2.d/	glo-	2g/	-gna(m).
!	!	!	!	!	!	!LO:TX:t=P:problem=kreska pseudotaktowa	!
.	.	2d\	pro-	.	.	2rg	.
.	.	.	.	4e/	-ri-	.	.
=30-	=30-	=30-	=30-	=30-	=30-	=30-	=30-
1A	glo-	2d\	-pter	2f\	-am	0r	.
.	.	2c\	ma-	1e	Tu-	.	.
*	*	*lig	*	*	*	*	*
2F/	-ri-	1d	-gnam	.	.	.	.
2G/	-am	.	.	1d/	.	.	.
=31-	=31-	=31-	=31-	=31-	=31-	=31-	=31-
!	!	!LO:TX:t=P:problem=kreska pseudotaktowa	!	!	!	!	!
1E	tu-	1G	.	.	.	2rg	.
*	*	*	*	*	*	*	*ij
!	!	!	!	!LO:TX:t=P:problem=# above	!	!	!
.	.	.	.	2c#X/	.	2g/	pro-
*	*	*Xlig	*	*	*	*	*
!LO:TX:t=P:problem=kreska pseudotaktowa	!	!	!	!LO:TX:t=P:problem=kreska pseudotaktowa	!	!	!
1D	-am	2r	.	1d	-am	2g/	-pter
.	.	2d\	glo-	.	.	2f/	ma-
=32-	=32-	=32-	=32-	=32-	=32-	=32-	=32-
*custos:D	*	*	*	*	*	*	*
!LO:TX:b:t=Cito	!	!	!	!	!	!	!
1r	.	2d\	-ri-	2r	.	2.g/	-gna(m)
*	*	*	*	*	*	*	*Xij
.	.	2c,<\	-am	1g	tu-	.	.
.	.	.	.	.	.	4a/	.
*	*	*	*ij	*	*	*	*
!LO:PB:g=original	!	!	!	!	!	!	!
2rF	.	2d\	glo-	.	.	2b-/	glo-
!LO:TX:t=P:problem=kreska pseudotaktowa	!	!LO:TX:t=P:problem=kreska pseudotaktowa	!	!	!	!	!
2d\	glo-	2d\	-ri-	2f\	.	1a/	ri-
=33-	=33-	=33-	=33-	=33-	=33-	=33-	=33-
2d\	-ri-	(2B-/	-am	1e	.	.	.
2c\	-am	2c/)	.	.	.	1g	-am
*	*	*	*Xij	*	*	*	*
!	!	!	!	!LO:TX:t=P:problem=kreska pseudotaktowa	!	!	!
1d	tu-	1A	tu-	0d	-am.	.	.
.	.	.	.	.	.	2f/	tu-
=34-	=34-	=34-	=34-	=34-	=34-	=34-	=34-
!LO:TX:t=P:problem=kreska pseudotaktowa	!	!	!	!	!	!LO:TX:t=P:problem=kreska pseudotaktowa	!
0G	-am	1.B-	.	.	.	0g	-am
.	.	.	.	2r	.	.	.
.	.	4A/	.	2g\	Do-	.	.
.	.	4G/	.	.	.	.	.
=35-	=35-	=35-	=35-	=35-	=35-	=35-	=35-
!	!	!LO:TX:t=P:problem=kreska pseudotaktowa	!	!	!	!	!
0r	.	0G	-am.	2g\	-mi-	2r	.
.	.	.	.	2g\	-ne	2dd\	Do-
.	.	.	.	1b-	DE-	2dd\	-mi-
.	.	.	.	.	.	2dd\	-ne
=36-	=36-	=36-	=36-	=36-	=36-	=36-	=36-
!LO:TX:t=P:problem=kreska pseudotaktowa	!	!	!	!LO:TX:t=P:problem=kreska pseudotaktowa	!	!	!
1r	.	00r	.	1a	-(us)	1ff	DE-
!	!	!	!	!	!	!LO:TX:t=P:problem=kreska pseudotaktowa	!
2rF	.	.	.	2r	.	1ee	-(us)
!LO:TX:t=P:problem=kreska pseudotaktowa	!	!	!	!	!	!	!
2G/	Do-	.	.	1g\	Rex	.	.
!	!	!	!	!	!	!LO:PB:g=original	!
=37-	=37-	=37-	=37-	=37-	=37-	=37-	=37-
2G/	-mi-	.	.	.	.	2r	.
2G/	-ne	.	.	2g\	coe-	1dd	Rex
1B-	DE-	.	.	2f\	-le-	.	.
.	.	.	.	2d/	.	2dd\	coe-
=38-	=38-	=38-	=38-	=38-	=38-	=38-	=38-
!LO:TX:t=P:problem=kreska pseudotaktowa	!	!	!	!	!	!	!
1A	-(us)	0rc	.	2e\	.	2cc\	-le-
!	!	!	!	!	!	!LO:TX:t=P:problem=kreska pseudotaktowa	!
.	.	.	.	2f\	.	2a/	.
!LO:TX:t=P:problem=kreska pseudotaktowa	!	!	!	!	!	!	!
1r	.	.	.	2g\	.	2b-\	.
.	.	.	.	2.b-\	.	2.dd\	.
=39-	=39-	=39-	=39-	=39-	=39-	=39-	=39-
1.G	Rex	2r	.	.	.	.	.
.	.	.	.	4a\	.	4cc\	.
.	.	2d\	Do-	4g\	.	4b-\	.
.	.	.	.	4f\	.	4a\	.
.	.	2d\	-mi-	1g	.	1b-	.
!LO:TX:t=P:problem=kreska pseudotaktowa	!	!	!	!	!	!	!
2G/	coe-	2d\	-ne	.	.	.	.
=40-	=40-	=40-	=40-	=40-	=40-	=40-	=40-
!	!	!	!	!LO:TX:t=P:problem=kreska pseudotaktowa	!	!LO:TX:t=P:problem=kreska pseudotaktowa	!
2F/	-le-	1f	DE-	1a	-stis	1a	-stis
2D/	.	.	.	.	.	.	.
!	!	!LO:TX:t=P:problem=kreska pseudotaktowa	!	!	!	!	!
4E/	.	1e	-(us)	2r	.	1r	.
4D/	.	.	.	.	.	.	.
4E/	.	.	.	1g\	De-	.	.
4F/	.	.	.	.	.	.	.
=41-	=41-	=41-	=41-	=41-	=41-	=41-	=41-
0G	.	1rg	.	.	.	2r	.
.	.	.	.	2g\	-us	1dd	De-
.	.	2r	.	1b-	Pa-	.	.
.	.	2d\	DE-	.	.	2dd\	-us
=42-	=42-	=42-	=42-	=42-	=42-	=42-	=42-
!LO:TX:t=P:problem=kreska pseudotaktowa	!	!	!	!	!	!	!
1D	-stis	2d\	-us	2a\	.	1ff	Pa-
.	.	2d\	Pa-	2f\	.	.	.
0rA	.	2c/	-ter	2g\	-ter	2ee\	.
!	!	!	!	!	!	!LO:TX:t=P:problem=kreska pseudotaktowa	!
.	.	2A/	o-	2a\	o-	2cc\	-ter
=43-	=43-	=43-	=43-	=43-	=43-	=43-	=43-
.	.	2B-/	-mni-	2d/	-mni-	2dd\	o-
!	!	!	!	!LO:TX:t=P:problem=kreska pseudotaktowa	!	!	!
.	.	2c\	-po-	2g\	.	1ee	-mni-
*	*	*lig	*	*	*	*	*
!LO:TX:t=P:problem=kreska pseudotaktowa	!	!	!	!LO:LB:g=original	!	!	!
1r	.	1d	-tens	2f\	-po-	.	.
.	.	.	.	4e/	.	1dd\	.
.	.	.	.	4d/	.	.	.
=44-	=44-	=44-	=44-	=44-	=44-	=44-	=44-
!	!	!LO:TX:t=P:problem=kreska pseudotaktowa	!	!	!	!	!
2r	.	1A	.	2e,<\	-tens	.	.
2A\	Do-	.	.	2a\	Do-	2cc\	-po-
*	*	*Xlig	*	*	*	*	*
!	!	!	!	!	!	!LO:TX:t=P:problem=kreska pseudotaktowa	!
2B-\	-mi-	0r	.	2f\	-mi-	1dd	-tens
2G/	-ne	.	.	1b-\	-ne	.	.
=45-	=45-	=45-	=45-	=45-	=45-	=45-	=45-
2A\	Fi-	.	.	.	.	1r	.
2c\	.	.	.	1a	Fi-	.	.
1B-	.	2r	.	.	.	2r	.
.	.	2d\	U-	2g\	.	2dd\	U-
=46-	=46-	=46-	=46-	=46-	=46-	=46-	=46-
!	!	!	!	!LO:TX:t=P:problem=kreska pseudotaktowa	!	!	!
2A\	-li	2e\	-ni-	1a	-li	2cc\	-ni-
!LO:TX:t=P:problem=kreska pseudotaktowa	!	!	!	!	!	!	!
2r	.	2c\	-ge-	.	.	1ee	-ge-
1r	.	2d\	.	1r	.	.	.
.	.	2f\	.	.	.	1dd\	.
=47-	=47-	=47-	=47-	=47-	=47-	=47-	=47-
2r	.	2.e\	.	2r	.	.	.
2A\	Je-	.	.	2a\	Je-	2cc\	-ni-
.	.	4e\	-ni-	.	.	.	.
!	!	!LO:TX:t=P:problem=kreska pseudotaktowa	!	!	!	!LO:TX:t=P:problem=kreska pseudotaktowa	!
2B-\	su	1d	-te	2f\	-su	1dd	-te
2G/	Chri-	.	.	1b-\	X-	.	.
!	!	!LO:LB:g=original	!	!	!	!	!
=48-	=48-	=48-	=48-	=48-	=48-	=48-	=48-
2A\	.	1rg	.	.	.	1r	.
2c\	.	.	.	1a	.	.	.
*lig	*	*	*	*	*	*	*
1B-	.	2r	.	.	.	2r	.
.	.	2d\	Je-	2g\	.	2dd\	Je-
=49-	=49-	=49-	=49-	=49-	=49-	=49-	=49-
!	!	!	!	!LO:TX:t=P:problem=kreska pseudotaktowa	!	!	!
1A	.	2e\	.	00a	-te	2cc\	-su
!	!	!LO:TX:t=P:problem=kreska pseudotaktowa	!	!	!	!	!
.	.	2c\	-su	.	.	2.ee\	X-
*Xlig	*	*	*	*	*	*	*
1D	.	2d\	X-	.	.	.	.
.	.	.	.	.	.	4dd\	.
.	.	1f\	.	.	.	2dd\	.
=50-	=50-	=50-	=50-	=50-	=50-	=50-	=50-
0A	.	.	.	.	.	2cc\	.
.	.	4e\	.	.	.	1dd	.
.	.	4d\	.	.	.	.	.
.	.	1e	.	.	.	.	.
.	.	.	.	.	.	2cc\	.
=51-	=51-	=51-	=51-	=51-	=51-	=51-	=51-
!LO:TX:t=P:problem=kreska pseudotaktowa	!	!LO:TX:t=P:problem=kreska pseudotaktowa	!	!	!	!LO:TX:t=P:problem=kreska pseudotaktowa	!
0D	-ste	0d	-te.	2r	.	0dd	-te
.	.	.	.	2a\	Do-	.	.
.	.	.	.	2a\	-mi-	.	.
.	.	.	.	2a\	-ne	.	.
!LO:LB:g=original	!	!	!	!	!	!	!
=52-	=52-	=52-	=52-	=52-	=52-	=52-	=52-
!	!	!LO:TX:a:t=5	!	!	!	!	!
0r	.	00r	.	1g	De-	2r	.
.	.	.	.	.	.	2dd\	Do-
.	.	.	.	1.f	.	2dd\	-mi-
.	.	.	.	.	.	2dd\	-ne
=53-	=53-	=53-	=53-	=53-	=53-	=53-	=53-
2r	.	.	.	.	.	0cc	DE-
!LO:TX:t=P:problem=kreska pseudotaktowa	!	!	!	!	!	!	!
2A\	Do-	.	.	4e/	-us	.	.
!	!	!	!	!LO:TX:t=P:problem=kreska pseudotaktowa	!	!	!
.	.	.	.	4d/	.	.	.
2A\	-mi-	.	.	2e\	a-	.	.
2A\	-ne	.	.	2f\	-gn(us)	.	.
=54-	=54-	=54-	=54-	=54-	=54-	=54-	=54-
!	!	!LO:TX:t=P:problem=kreska pseudotaktowa	!	!	!	!LO:TX:t=P:problem=kreska pseudotaktowa	!
0G	De-	1r	.	2g\	De-	0b-	-(us)
.	.	.	.	4G/	.	.	.
.	.	.	.	4A/	.	.	.
.	.	2r	.	4B-/	.	.	.
.	.	.	.	4cny/	.	.	.
.	.	2d\	Do-	4d/	.	.	.
!	!	!	!	!LO:TX:t=P:problem=kreska pseudotaktowa	!	!	!
.	.	.	.	4e/	.	.	.
!	!	!	!	!	!	!LO:LB:g=original	!
=55-	=55-	=55-	=55-	=55-	=55-	=55-	=55-
2F/	-us	2d\	-mi-	1.f	.	2rg	.
!	!	!LO:TX:t=P:problem=kreska pseudotaktowa	!	!	!	!	!
4D/	A-	2d\	-ne	.	.	1a	A-
!LO:TX:t=P:problem=kreska pseudotaktowa	!	!	!	!	!	!	!
4E/	.	.	.	.	.	.	.
4F/	.	1c	DE-	.	.	.	.
4G/	.	.	.	.	.	.	.
4A/	.	.	.	1e\	.	2a/	-gnus
4F/	.	.	.	.	.	.	.
=56-	=56-	=56-	=56-	=56-	=56-	=56-	=56-
4G/	gnus	2B-/	-(us)	.	.	0g	De-
4F/	.	.	.	.	.	.	.
4E/	.	2.G/	A-	1d	.	.	.
4D/	.	.	.	.	.	.	.
1E	De-	.	.	.	.	.	.
.	.	4F/	.	.	.	.	.
!	!	!	!	!LO:TX:t=P:problem=# above	!	!	!
.	.	4G/	.	2c#X/	.	.	.
.	.	4A/	.	.	.	.	.
=57-	=57-	=57-	=57-	=57-	=57-	=57-	=57-
!LO:TX:t=P:problem=kreska pseudotaktowa	!	!	!	!	!	!	!
0D	-i	2B-/	.	1d	.	2f/	.
!	!	!LO:TX:t=P:problem=kreska pseudotaktowa	!	!	!	!	!
.	.	2A/	-gn(us)	.	.	4d/	.
!	!	!	!	!	!	!LO:TX:t=P:problem=kreska pseudotaktowa	!
.	.	.	.	.	.	4e/	.
!	!	!	!	!LO:TX:t=P:problem=kreska pseudotaktowa	!	!	!
.	.	2.d\	De-	1A	-i	4f/	.
.	.	.	.	.	.	4g/	.
.	.	.	.	.	.	2.a/	.
.	.	4c\	.	.	.	.	.
=58-	=58-	=58-	=58-	=58-	=58-	=58-	=58-
!LO:TX:a:t=3	!	!	!	!	!	!	!
0r	.	4d\	.	2r	.	.	.
.	.	4e\	.	.	.	4g/	.
.	.	2.f\	.	1a	Fi-	4f/	.
.	.	.	.	.	.	4e/	.
.	.	.	.	.	.	2d/	.
.	.	4e\	.	.	.	.	.
.	.	1d\	.	2a\	-li-	2f/	.
=59-	=59-	=59-	=59-	=59-	=59-	=59-	=59-
!LO:TX:t=P:problem=kreska pseudotaktowa	!	!	!	!	!	!	!
1r	.	.	.	1g	-(us)	1e	.
.	.	2c\	.	.	.	.	.
!	!	!LO:TX:t=P:problem=kreska pseudotaktowa	!	!	!	!LO:TX:t=P:problem=kreska pseudotaktowa	!
2r	.	1d	-i	2.f\	Pa-	1d	-i.
1d\	Fi-	.	.	.	.	.	.
!	!	!	!	!LO:TX:t=P:problem=kreska pseudotaktowa	!	!	!
.	.	.	.	4g\	.	.	.
!	!	!	!	!LO:LB:g=original	!	!	!
=60-	=60-	=60-	=60-	=60-	=60-	=60-	=60-
.	.	00r	.	4a\	.	0rff	.
.	.	.	.	4b-\	.	.	.
2d\	-li-	.	.	2a\	.	.	.
!LO:TX:t=P:problem=kreska pseudotaktowa	!	!	!	!	!	!	!
1c	-us	.	.	4a\	.	.	.
.	.	.	.	4g\	.	.	.
.	.	.	.	4f\	.	.	.
.	.	.	.	4e\	.	.	.
=61-	=61-	=61-	=61-	=61-	=61-	=61-	=61-
2B-\	Pa-	.	.	4d/	.	1rff	.
.	.	.	.	4e/	.	.	.
2.d\	.	.	.	4f\	.	.	.
!	!	!	!	!LO:TX:t=P:problem=kreska pseudotaktowa	!	!	!
.	.	.	.	4g\	.	.	.
.	.	.	.	2a\	.	2r	.
4c\	.	.	.	.	.	.	.
!	!	!	!	!LO:TX:t=P:problem=kreska pseudotaktowa	!	!	!
4B-\	.	.	.	2.b-\	.	1dd\	Fi-
4A\	.	.	.	.	.	.	.
=62-	=62-	=62-	=62-	=62-	=62-	=62-	=62-
2G/	.	0r	.	.	.	.	.
.	.	.	.	4a\	.	.	.
!LO:TX:t=P:problem=kreska pseudotaktowa	!	!	!	!	!	!	!
2B-\	.	.	.	1g	.	2dd\	-li-
1A	.	.	.	.	.	1cc	-us
!	!	!	!	!LO:TX:t=P:problem=kreska pseudotaktowa	!	!	!
!	!	!	!	!LO:TX:t=P:problem=# above	!	!	!
.	.	.	.	2f#X\	.	.	.
=63-	=63-	=63-	=63-	=63-	=63-	=63-	=63-
!	!	!LO:TX:t=P:problem=kreska pseudotaktowa	!	!	!	!	!
1G	.	1r	.	2g,<\	-tris	1b-	Pa-
.	.	.	.	2.d/	Pa-	.	.
2F/	.	2r	.	.	.	2a/	.
.	.	.	.	4cny/	.	.	.
2.G/	.	1d\	Fi-	4B-/	.	2.b-/	.
.	.	.	.	4A/	.	.	.
=64-	=64-	=64-	=64-	=64-	=64-	=64-	=64-
.	.	.	.	2G/	.	.	.
4F/	.	.	.	.	.	4a/	.
!LO:TX:t=P:problem=kreska pseudotaktowa	!	!	!	!	!	!LO:TX:t=P:problem=kreska pseudotaktowa	!
2D/	.	2d\	-li-	1B-	.	2f/	.
!	!	!LO:TX:t=P:problem=kreska pseudotaktowa	!	!	!	!	!
2E/	.	1c	-(us)	.	.	2g/	.
!	!	!	!	!LO:TX:t=P:problem=kreska pseudotaktowa	!	!	!
2F/	.	.	.	2A/	.	2a/	.
=65-	=65-	=65-	=65-	=65-	=65-	=65-	=65-
1G	.	2B-/	Pa-	4G/	.	1b-	.
.	.	.	.	4A/	.	.	.
.	.	2.d\	.	4B-/	.	.	.
.	.	.	.	4c/	.	.	.
2F/	.	.	.	1.d	.	2a/	.
.	.	4c/	.	.	.	.	.
2.G/	.	4B-/	.	.	.	2.b-/	.
.	.	4A/	.	.	.	.	.
=66-	=66-	=66-	=66-	=66-	=66-	=66-	=66-
.	.	2B-/	.	.	.	.	.
4F/	.	.	.	.	.	4a/	.
!	!	!	!	!LO:TX:t=P::problem=kreska pseudotaktowa&colon;między nutą a kropką	!	!	!
4E/	.	2.c/	.	2.e/	.	4g/	.
4D/	.	.	.	.	.	4f/	.
2C/	.	.	.	.	.	2g/	.
.	.	4B-/	.	4d/	.	.	.
1F/	.	4A/	.	4c/	.	2.a/	.
.	.	4G/	.	4B-/	.	.	.
=67-	=67-	=67-	=67-	=67-	=67-	=67-	=67-
*	*	*	*	*lig	*	*	*
.	.	2F/	.	1c	.	.	.
.	.	.	.	.	.	4g/	.
2E/	.	2G/	.	.	.	1g	.
1D	.	1A	.	1d	.	.	.
.	.	.	.	.	.	2f#X/	.
*	*	*	*	*Xlig	*	*	*
=68-	=68-	=68-	=68-	=68-	=68-	=68-	=68-
!	!	!LO:TX:a:t=P:problem=♮ above	!	!	!	!	!
0Gl;	-tris.	0Bnl;<	-tris.	0dl;	-tris.	0gl;	-tris.
!LO:LB:g=original	!	!LO:LB:g=original	!	!LO:PB:g=original	!	!	!
=69||	=69||	=69||	=69||	=69||	=69||	=69||	=69||
*M2/1	*	*M2/1	*	*M2/1	*	*M2/1	*
*met(C|)	*	*met(C|)	*	*met(C|)	*	*met(C|)	*
!LO:TX:a:t=Qui tollis\nTacet.	!	!LO:TX:a:t=Qui tollis\nTacet.	!	!LO:TX:a:t=à2	!	!LO:TX:a:t=à 2.	!
0ryy	.	0ryy	.	0g	Qui	00r	.
=70-	=70-	=70-	=70-	=70-	=70-	=70-	=70-
*	*	*	*	*lig	*	*	*
0ryy	.	0ryy	.	1b-	tol-	.	.
.	.	.	.	1a	.	.	.
*	*	*	*	*Xlig	*	*	*
=71-	=71-	=71-	=71-	=71-	=71-	=71-	=71-
!	!	!	!	!	!	!LO:TX:t=P:problem=kreska pseudotaktowa	!
0ryy	.	0ryy	.	1g	-lis	1r	.
.	.	.	.	2f\	pec-	0dd	Qui
.	.	.	.	1g\	-ca-	.	.
=72-	=72-	=72-	=72-	=72-	=72-	=72-	=72-
0ryy	.	0ryy	.	.	.	.	.
.	.	.	.	4f\	.	.	.
!	!	!	!	!LO:TX:t=P:problem=kreska pseudotaktowa	!	!	!
.	.	.	.	4e\	.	.	.
*	*	*	*	*	*	*lig	*
.	.	.	.	4d/	.	1ff	tol-
.	.	.	.	4e/	.	.	.
.	.	.	.	4f/	.	.	.
.	.	.	.	4g/	.	.	.
=73-	=73-	=73-	=73-	=73-	=73-	=73-	=73-
0ryy	.	0ryy	.	2a\	.	1ee	.
!	!	!	!	!LO:TX:t=P:problem=kreska pseudotaktowa	!	!	!
.	.	.	.	2g\	-ta	.	.
*	*	*	*	*	*	*Xlig	*
!	!	!	!	!	!	!LO:TX:t=P:problem=kreska pseudotaktowa	!
.	.	.	.	1b-	mun-	1dd	-lis
!	!	!	!	!	!	!LO:LB:g=original	!
=74-	=74-	=74-	=74-	=74-	=74-	=74-	=74-
0ryy	.	0ryy	.	2a\	.	2cc\	pec-
.	.	.	.	4g\	.	1dd	-ca-
.	.	.	.	4f\	.	.	.
.	.	.	.	1g	-di	.	.
.	.	.	.	.	.	4cc\	.
!	!	!	!	!	!	!LO:TX:t=P:problem=kreska pseudotaktowa	!
.	.	.	.	.	.	4b-\	.
=75-	=75-	=75-	=75-	=75-	=75-	=75-	=75-
0ryy	.	0ryy	.	2.f\	pec-	4a/	.
.	.	.	.	.	.	4b-/	.
.	.	.	.	.	.	4cc/	.
.	.	.	.	8e/L	.	4dd/	.
.	.	.	.	8d/J	.	.	.
.	.	.	.	2c/	-ca-	2ee\	.
.	.	.	.	1d/	.	2dd\	-ta
=76-	=76-	=76-	=76-	=76-	=76-	=76-	=76-
0ryy	.	0ryy	.	.	.	2ff\	mun-
.	.	.	.	2e\	.	1ee	.
.	.	.	.	2f\	.	.	.
.	.	.	.	2g\	-ta	1dd\	.
=77-	=77-	=77-	=77-	=77-	=77-	=77-	=77-
0ryy	.	0ryy	.	1e	mun-	.	.
.	.	.	.	.	.	2cc\	.
!	!	!	!	!LO:TX:t=P:problem=kreska pseudotaktowa	!	!LO:TX:t=P:problem=kreska pseudotaktowa	!
.	.	.	.	1d	-di	0dd	-di
=78-	=78-	=78-	=78-	=78-	=78-	=78-	=78-
0ryy	.	0ryy	.	2rc	.	.	.
.	.	.	.	2d/	mi-	.	.
.	.	.	.	1g	-ſe-	2rg	.
.	.	.	.	.	.	2g/	mi-
=79-	=79-	=79-	=79-	=79-	=79-	=79-	=79-
0ryy	.	0ryy	.	1g	-re-	2dd\	-ſe-
.	.	.	.	.	.	2ee\	-re-
.	.	.	.	2.f\	-re	2.ff\	-re
.	.	.	.	4g\	.	8ee\L	.
!	!	!	!	!	!	!LO:TX:t=P:problem=kreska pseudotaktowa	!
.	.	.	.	.	.	8dd\J	.
=80-	=80-	=80-	=80-	=80-	=80-	=80-	=80-
0ryy	.	0ryy	.	2a\	.	2cc\	.
.	.	.	.	1b-	.	2.dd\	no-
.	.	.	.	.	.	4cc\	.
.	.	.	.	1a\	no-	4b-/	.
.	.	.	.	.	.	4a/	.
=81-	=81-	=81-	=81-	=81-	=81-	=81-	=81-
0ryy	.	0ryy	.	.	.	1b-	.
.	.	.	.	2g\	.	.	.
!	!	!	!	!LO:TX:t=P:problem=kreska pseudotaktowa	!	!LO:TX:t=P:problem=kreska pseudotaktowa	!
.	.	.	.	1a	-bis	0a	-bis.
=82-	=82-	=82-	=82-	=82-	=82-	=82-	=82-
0ryy	.	0ryy	.	2r	.	.	.
.	.	.	.	2d/	mi-	.	.
.	.	.	.	2.f\	-ſe-	2rg	.
.	.	.	.	.	.	2a/	mi-
.	.	.	.	4g\	.	.	.
=83-	=83-	=83-	=83-	=83-	=83-	=83-	=83-
0ryy	.	0ryy	.	2a\	-re-	2cc\	-ſe-
!	!	!	!	!LO:TX:t=P:problem=kreska pseudotaktowa	!	!	!
.	.	.	.	2b-\	-re	2dd\	-re-
.	.	.	.	2g\	no-	1ee	-re
.	.	.	.	1a\	.	.	.
=84-	=84-	=84-	=84-	=84-	=84-	=84-	=84-
!	!	!	!	!	!	!LO:TX:t=P:problem=kreska pseudotaktowa	!
0ryy	.	0ryy	.	.	.	1ff	.
.	.	.	.	2.b-\	.	.	.
.	.	.	.	.	.	2dd\	.
.	.	.	.	4a\	.	.	.
.	.	.	.	4g\	.	2.ee\	no-
!	!	!	!	!LO:TX:t=P:problem=kreska pseudotaktowa	!	!	!
.	.	.	.	4f\	.	.	.
!	!	!	!	!LO:LB:g=original	!	!	!
=85-	=85-	=85-	=85-	=85-	=85-	=85-	=85-
0ryy	.	0ryy	.	2g\	.	.	.
.	.	.	.	.	.	4cc\	.
.	.	.	.	2a\	.	2.ff\	.
.	.	.	.	2.d/	.	.	.
.	.	.	.	.	.	4ee\	.
.	.	.	.	.	.	4dd\	.
.	.	.	.	4e/	.	4cc\	.
=86-	=86-	=86-	=86-	=86-	=86-	=86-	=86-
!	!	!	!	!	!	!LO:TX:t=P:problem=kreska pseudotaktowa	!
0ryy	.	0ryy	.	2f\	.	1dd	.
.	.	.	.	2.g\	.	.	.
.	.	.	.	.	.	2b-\	.
.	.	.	.	4f/	.	.	.
.	.	.	.	4e/	.	2.cc\	.
.	.	.	.	4d/	.	.	.
=87-	=87-	=87-	=87-	=87-	=87-	=87-	=87-
0ryy	.	0ryy	.	4e/	.	.	.
.	.	.	.	4d/	.	4b-/	.
.	.	.	.	1g	.	4a/	.
.	.	.	.	.	.	4g/	.
.	.	.	.	.	.	1a	.
.	.	.	.	2f\	.	.	.
=88-	=88-	=88-	=88-	=88-	=88-	=88-	=88-
!	!	!	!	!	!	!LO:TX:t=P:problem=♮ above	!
0ryy	.	0ryy	.	0gl;	-bis.	0bnl;<	-bis.
!	!	!	!	!	!	!LO:LB:g=original	!
=89||	=89||	=89||	=89||	=89||	=89||	=89||	=89||
*M2/1	*	*M2/1	*	*M2/1	*	*M2/1	*
*met(C|)	*	*met(C|)	*	*met(C|)	*	*met(C|)	*
0G	Qui	0G	Qui	0d	Qui	0g	Qui
=90-	=90-	=90-	=90-	=90-	=90-	=90-	=90-
1G	tol-	1B-	tol-	1g	tol-	1dd	tol-
!LO:TX:t=P:problem=kreska pseudotaktowa	!	!LO:TX:t=P:problem=kreska pseudotaktowa	!	!LO:TX:t=P:problem=kreska pseudotaktowa	!	!LO:TX:t=P:problem=kreska pseudotaktowa	!
1En	-lis	1c	-lis	1g	-lis	1ee	-lis
=91-	=91-	=91-	=91-	=91-	=91-	=91-	=91-
1D	pec-	1d	pec-	1.f	pec-	2.ff\	pec-
.	.	.	.	.	.	4ee\	.
1D	-ca-	1.d	-ca-	.	.	4dd\	.
.	.	.	.	.	.	4cc\	.
.	.	.	.	2f\	-ca-	2.dd\	-ca-
=92-	=92-	=92-	=92-	=92-	=92-	=92-	=92-
!LO:TX:t=P:problem=kreska pseudotaktowa	!	!	!	!	!	!	!
0G	-ta	.	.	0g	-ta	.	.
.	.	.	.	.	.	4cc\	.
!	!	!LO:TX:t=P:problem=kreska pseudotaktowa	!	!	!	!	!
.	.	2d\	-ta	.	.	4b-/	-ta
.	.	.	.	.	.	4a/	.
.	.	1.d	mun-	.	.	1b-	mun-
=93-	=93-	=93-	=93-	=93-	=93-	=93-	=93-
!	!	!	!	!	!	!LO:TX:t=P:problem=kreska pseudotaktowa	!
0A	mun-	.	.	0e	mun-	0a	-di.
.	.	4c/	.	.	.	.	.
.	.	4B-/	.	.	.	.	.
.	.	1c	.	.	.	.	.
=94-	=94-	=94-	=94-	=94-	=94-	=94-	=94-
!LO:TX:t=P:problem=kreska pseudotaktowa	!	!LO:TX:t=P:problem=kreska pseudotaktowa	!	!LO:TX:t=P:problem=kreska pseudotaktowa	!	!	!
1D	-di	1d	-di	1f	-di	1.a	Suſ-
1.D	Suſ-	1.d	Suſ-	1.f	Suſ-	.	.
.	.	.	.	.	.	2a/	-ci-
=95-	=95-	=95-	=95-	=95-	=95-	=95-	=95-
!	!	!	!	!	!	!LO:TX:t=P:problem=kreska pseudotaktowa	!
.	.	.	.	.	.	0a	-pe
2D/	-ci-	2d\	-ci-	2f\	-ci-	.	.
!LO:TX:t=P:problem=kreska pseudotaktowa	!	!LO:TX:t=P:problem=kreska pseudotaktowa	!	!LO:TX:t=P:problem=kreska pseudotaktowa	!	!	!
1D	-pe	1d	-pe	0f	-pe	.	.
=96-	=96-	=96-	=96-	=96-	=96-	=96-	=96-
1.d	de-	1r	.	.	.	1.ff	de-
.	.	0d	de-	1.f	de-	.	.
!LO:TX:t=P:problem=kreska pseudotaktowa	!	!	!	!	!	!	!
2c\	-pre-	.	.	.	.	2ee\	-pre-
=97-	=97-	=97-	=97-	=97-	=97-	=97-	=97-
2B-\	-ca-	.	.	.	.	2dd\	-ca-
!LO:TX:t=P:problem=kreska pseudotaktowa	!	!	!	!	!	!	!
2A\	-ti-	.	.	2f\	-pre-	2cc\	-ti-
1G	-o-	1e	-pre-	1g	-ca-	1b-	-o-
=98-	=98-	=98-	=98-	=98-	=98-	=98-	=98-
*lig	*	*	*	*	*	*	*
1F	-nem	1f	-ca-	1c	-ti-	1.a	-nem
!	!	!	!	!LO:TX:t=P:problem=kreska pseudotaktowa	!	!	!
1D	no-	1F	-ti-	1d	-o-	.	.
.	.	.	.	.	.	2.b-/	no-
=99-	=99-	=99-	=99-	=99-	=99-	=99-	=99-
0E	.	0G	-o-	1.B-	-nem	.	.
.	.	.	.	.	.	4a/	.
.	.	.	.	.	.	4g/	.
!	!	!	!	!	!	!LO:TX:t=P:problem=kreska pseudotaktowa	!
.	.	.	.	.	.	4f/	.
.	.	.	.	.	.	1g	.
.	.	.	.	2c/	.	.	.
*Xlig	*	*	*	*	*	*	*
=100-	=100-	=100-	=100-	=100-	=100-	=100-	=100-
!	!	!LO:TX:t=P:problem=kreska pseudotaktowa	!	!	!	!	!
1.D	.	1A	-nem	1d	no-	2.f/	.
.	.	.	.	.	.	4g/	.
.	.	1d	no-	1.f	.	2a/	.
2E/	.	.	.	.	.	2b-\	.
=101-	=101-	=101-	=101-	=101-	=101-	=101-	=101-
2F/	.	2c/	.	.	.	2a/	.
!LO:TX:t=P:problem=kreska pseudotaktowa	!	!	!	!	!	!	!
2G/	.	2B-/	.	2e\	.	1g	.
!	!	!LO:TX:t=P:problem=kreska pseudotaktowa	!	!LO:TX:t=P:problem=kreska pseudotaktowa	!	!	!
1D	.	1A	-stram	1d	-stram	.	.
!	!	!	!	!	!	!LO:TX:t=P:problem=# above	!
.	.	.	.	.	.	2f#X/	.
=102-	=102-	=102-	=102-	=102-	=102-	=102-	=102-
!LO:TX:t=P:problem=kreska pseudotaktowa	!	!	!	!	!	!LO:TX:t=P:problem=kreska pseudotaktowa	!
1G	-stram	2rF	.	1rb	.	00g	-stram
.	.	2.G/	Qui	.	.	.	.
2rF	.	.	.	1g	Qui	.	.
.	.	4A/	.	.	.	.	.
2.G/	Qui-	4B-/	.	.	.	.	.
.	.	4c/	.	.	.	.	.
=103-	=103-	=103-	=103-	=103-	=103-	=103-	=103-
.	.	2d\	se-	0b-	se-	.	.
4A\	.	.	.	.	.	.	.
4B-\	.	4G/	.	.	.	.	.
!	!	!LO:TX:t=P:problem=kreska pseudotaktowa	!	!	!	!	!
4c\	.	4A/	.	.	.	.	.
2d\	.	4B-/	.	.	.	.	.
.	.	4c/	.	.	.	.	.
2G/	.	4d/	.	.	.	.	.
.	.	4e/	.	.	.	.	.
=104-	=104-	=104-	=104-	=104-	=104-	=104-	=104-
!	!	!	!	!LO:TX:t=P:problem=kreska pseudotaktowa	!	!	!
2.A/	-se-	2f\	.	1a	-des	00r	.
!	!	!LO:TX:t=P::problem=kreska pseudotaktowa&colon;między nutą a kropką	!	!	!	!	!
.	.	2.e\	.	.	.	.	.
!LO:TX:t=P:problem=kreska pseudotaktowa	!	!	!	!	!	!	!
4G/	.	.	.	.	.	.	.
!LO:LB:g=original	!	!	!	!LO:LB:g=original	!	!	!
2F/	.	.	.	2r	.	.	.
!	!	!LO:LB:g=original	!	!	!	!	!
.	.	4d\	.	.	.	.	.
2G/	.	1d\	.	2g\	ad	.	.
=105-	=105-	=105-	=105-	=105-	=105-	=105-	=105-
1E	.	.	.	2g\	dex-	.	.
.	.	2c\	.	2g\	-te-	.	.
2D/	-des	2d,<\	-des	4f\	-ram	.	.
.	.	.	.	4g\	.	.	.
!LO:TX:t=P:problem=kreska pseudotaktowa	!	!	!	!	!	!	!
2D/	ad	2f\	ad	4a\	.	.	.
.	.	.	.	4f\	.	.	.
=106-	=106-	=106-	=106-	=106-	=106-	=106-	=106-
!	!	!	!	!	!	!LO:TX:t=P:problem=kreska pseudotaktowa	!
2E/	dex-	2e\	dex-	4g\	Pa-	0rb	.
.	.	.	.	4f\	.	.	.
2F/	-te-	2d\	-te-	4e/	.	.	.
.	.	.	.	4d/	.	.	.
2G/	-ram	2d,<\	-ram	1e	.	.	.
2A\	P(a-	2c\	Pa-	.	.	.	.
=107-	=107-	=107-	=107-	=107-	=107-	=107-	=107-
!LO:TX:t=P:problem=kreska pseudotaktowa	!	!LO:TX:t=P:problem=kreska pseudotaktowa	!	!	!	!	!
1D	-t)ris.	1d	-tris.	2d,</	-tris	2rg	.
.	.	.	.	2f\	mi-	2a/	mi-
00r	.	2rA	.	2g\	-ſe-	2b-\	-ſe-
*	*	*	*	*	*	*custos:dd	*
!	!	!	!	!	!	!LO:TX:t=P:problem=kreska pseudotaktowa	!
!	!	!	!	!LO:TX:t=P:problem=kreska pseudotaktowa	!	!	!
.	.	2A/	mi-	2a\	-re-	2cc\	-re-
!	!	!	!	!	!	!LO:LB:g=original	!
=108-	=108-	=108-	=108-	=108-	=108-	=108-	=108-
.	.	2B-/	-ſe-	2d/	-re	2dd\	-re
.	.	2B-/	-re-	1g	no-	2dd\	no-
.	.	2c\	-re	.	.	2ee\	.
.	.	2d\	.	2f\	.	2ff\	.
=109-	=109-	=109-	=109-	=109-	=109-	=109-	=109-
.	.	2G/	no-	4g\	.	4ee\	.
.	.	.	.	4f\	.	4dd\	.
.	.	2B-/	.	4e/	.	1dd	.
.	.	.	.	4d/	.	.	.
!	!	!LO:TX:t=P:problem=kreska pseudotaktowa	!	!	!	!	!
2r	.	1A	-bis.	2e\	.	.	.
!LO:TX:t=P:problem=kreska pseudotaktowa	!	!	!	!	!	!	!
2A\	mi-	.	.	2.f\	.	2cc\	.
=110-	=110-	=110-	=110-	=110-	=110-	=110-	=110-
!	!	!	!	!	!	!LO:TX:t=P:problem=kreska pseudotaktowa	!
2B-\	-ſe-	0r	.	.	.	1dd	-bis.
.	.	.	.	4d/	.	.	.
2B-\	-re-	.	.	1g	.	.	.
2c\	-re	.	.	.	.	2rg	.
!	!	!	!	!LO:TX:t=P:problem=kreska pseudotaktowa	!	!	!
2d\	no-	.	.	2f\	.	2a/	Quo-
=111-	=111-	=111-	=111-	=111-	=111-	=111-	=111-
!LO:TX:t=P:problem=kreska pseudotaktowa	!	!LO:TX:t=P:problem=kreska pseudotaktowa	!	!	!	!	!
1G	-bis.	1r	.	1g	-bis	2b-\	-ni-
.	.	.	.	.	.	2g/	-am
0r	.	2r	.	00r	.	2a/	tu
.	.	2d\	Quo-	.	.	2b-\	.
=112-	=112-	=112-	=112-	=112-	=112-	=112-	=112-
.	.	2e\	-ni-	.	.	1cc	so-
!	!	!LO:TX:t=P:problem=kreska pseudotaktowa	!	!	!	!	!
.	.	2c\	-am	.	.	.	.
!	!	!	!	!	!	!LO:TX:t=P:problem=kreska pseudotaktowa	!
2r	.	2d\	Tu	.	.	1b-	-lus
!LO:TX:t=P:problem=kreska pseudotaktowa	!	!	!	!	!	!	!
2G/	Quo-	2e\	.	.	.	.	.
=113-	=113-	=113-	=113-	=113-	=113-	=113-	=113-
2A/	-ni-	1f	so-	.	.	2a/	San-
2F/	-am	.	.	.	.	1dd	.
!	!	!	!	!LO:TX:t=P:problem=kreska pseudotaktowa	!	!	!
2G/	Tu	1e	-lus	1rb	.	.	.
!LO:TX:t=P:problem=kreska pseudotaktowa	!	!	!	!	!	!	!
2A\	so-	.	.	.	.	2cc\	.
=114-	=114-	=114-	=114-	=114-	=114-	=114-	=114-
!	!	!	!	!	!	!LO:TX:t=P:problem=kreska pseudotaktowa	!
1B-	-l(us)	2d\	San-	2rc	.	1dd	-ct(us)
.	.	1g	.	2d/	Tu	.	.
1A	S(an)-	.	.	2e/	so-	2rg	.
.	.	2f\	.	2c/	-lus	2a/	Tu
=115-	=115-	=115-	=115-	=115-	=115-	=115-	=115-
!LO:TX:t=P:problem=kreska pseudotaktowa	!	!	!	!	!	!	!
1G	-ct(us)	1g	.	2d/	Do-	2b-\	so-
!	!	!	!	!	!	!LO:TX:t=P:problem=kreska pseudotaktowa	!
.	.	.	.	2e\	-mi-	2g/	-l(us)
!	!	!LO:TX:t=P:problem=kreska pseudotaktowa	!	!	!	!	!
2rF	.	1d	-ct(us)	2f\	-n(us)	2a/	Do-
!LO:TX:t=P:problem=kreska pseudotaktowa	!	!	!	!LO:TX:t=P:problem=kreska pseudotaktowa	!	!	!
*	*	*	*	*	*ij	*	*
2G/	Tu	.	.	2g\	Tu	(2b-\	.
=116-	=116-	=116-	=116-	=116-	=116-	=116-	=116-
2A/	so-	0r	.	2f\	so-	2cc\)	.
2F/	-l(us)	.	.	4e/	-lus	1dd	-mi-
.	.	.	.	4d/	Do-	.	.
2G/	Do-	.	.	1e	-mi-	.	.
!LO:TX:t=P:problem=kreska pseudotaktowa	!	!	!	!	!	!LO:TX:t=P:problem=kreska pseudotaktowa	!
2A\	-mi-	.	.	.	.	2cc\	.
=117-	=117-	=117-	=117-	=117-	=117-	=117-	=117-
2B-,<\	-n(us)	2r	.	2d,</	-n(us)	2dd,\	-n(us)
*	*	*	*	*	*Xij	*	*
1B-	Tu	1d	Tu	1f	Tu	1dd	Tu
!LO:TX:t=P:problem=kreska pseudotaktowa	!	!	!	!	!	!LO:TX:t=P:problem=kreska pseudotaktowa	!
2B-\	so-	2d\	so-	2g\	-so-	2dd\	so-
=118-	=118-	=118-	=118-	=118-	=118-	=118-	=118-
2A\	-lus	2e\	-lus	2a\	-l(us)	2cc\	-lus
2A\	al-	2c\	al-	2f\	al-	2cc\	al-
2G/	-tiſ-	2d\	-tiſ-	2g\	-tiſ-	2b-\	-tiſ-
!	!	!	!	!LO:TX:t=P:problem=kreska pseudotaktowa	!	!	!
2G/	-si-	2e\	-si-	2g\	-si-	2b-\	-si-
=119-	=119-	=119-	=119-	=119-	=119-	=119-	=119-
!	!	!LO:TX:t=P:problem=kreska pseudotaktowa	!	!	!	!LO:TX:t=P:problem=kreska pseudotaktowa	!
2F/	-m(us)	1f,<	-m(us)	2c/	-m(us)	0a	-m(us)
*	*ij	*	*	*	*	*	*
2D/	al-	.	.	1d	Je-	.	.
*	*	*custos:d	*	*	*	*	*
2.A\	-tiſ-	1e	JE-	.	.	.	.
.	.	.	.	2c/	-su	.	.
4A\	-si-	.	.	.	.	.	.
!	!	!LO:LB:g=original	!	!	!	!	!
=120-	=120-	=120-	=120-	=120-	=120-	=120-	=120-
*	*	*	*	*lig	*	*	*
2D,</	-m(us)	2d\	.	1d	X-	2r	.
*	*Xij	*	*	*	*	*	*
1d	Je-	1f	.	.	.	1b-	Je-
!	!	!	!	!LO:TX:t=P:problem=kreska pseudotaktowa	!	!	!
.	.	.	.	1A	-te	.	.
2c\	-su	1e\	.	.	.	1a/	-su
!LO:TX:t=P:problem=kreska pseudotaktowa	!	!	!	!	!	!	!
*	*	*	*	*Xlig	*	*	*
!LO:LB:g=original	!	!	!	!LO:LB:g=original	!	!	!
=121-	=121-	=121-	=121-	=121-	=121-	=121-	=121-
1B-	X-	.	.	0r	.	.	.
.	.	1d	.	.	.	2g/	X-
!LO:TX:t=P:problem=kreska pseudotaktowa	!	!	!	!	!	!LO:TX:t=P:problem=kreska pseudotaktowa	!
1A	-te	.	.	.	.	1a	-te
!	!	!LO:TX:t=P:problem=kreska pseudotaktowa	!	!	!	!	!
.	.	2c\	-SU	.	.	.	.
!	!	!	!	!	!	!LO:LB:g=original	!
=122-	=122-	=122-	=122-	=122-	=122-	=122-	=122-
2.D/	Je-	2.d\	Chri-	2r	.	2rg	.
.	.	.	.	1f	Je-	1a	Je-
4E/	.	4c/	.	.	.	.	.
2F/	.	2A/	.	.	.	.	.
!LO:TX:t=P:problem=kreska pseudotaktowa	!	!	!	!	!	!	!
2G/	-su	1B-/	.	1e\	.	2g/	.
=123-	=123-	=123-	=123-	=123-	=123-	=123-	=123-
2F/	X-	.	.	.	.	2a/	.
4E/	.	1A	.	1d	-su	2fny/	-su
4D/	.	.	.	.	.	.	.
1E	.	.	.	.	.	1g	X-
!	!	!	!	!LO:TX:t=P:problem=kreska pseudotaktowa	!	!	!
.	.	2G/	.	2c/	.	.	.
=124-	=124-	=124-	=124-	=124-	=124-	=124-	=124-
!	!	!LO:TX:t=P:problem=kreska pseudotaktowa	!	!	!	!	!
1D	-te	1A	-ste.	2d/	Chri-	2.f/	.
.	.	.	.	2.f\	.	.	.
.	.	.	.	.	.	4g/	.
!LO:TX:t=P:problem=skreślony zapis	!	!	!	!	!	!	!
1re	.	2rA	.	.	.	2a/	.
.	.	.	.	4e/	.	.	.
.	.	2G/	Cum	2.d/	.	1b-\	.
=125-	=125-	=125-	=125-	=125-	=125-	=125-	=125-
2r	.	2d\	San-	.	.	.	.
.	.	.	.	4c/	.	.	.
!LO:TX:t=P:problem=kreska pseudotaktowa	!	!	!	!	!	!	!
2G/	Cum	2d\	-cto	4B-/	.	1a	.
.	.	.	.	4A/	.	.	.
2G/	San-	2d\	Spi-	1B-	.	.	.
!LO:TX:t=P:problem=kreska pseudotaktowa	!	!	!	!	!	!	!
2G/	-cto	2e\	-ri-	.	.	2g/	.
=126-	=126-	=126-	=126-	=126-	=126-	=126-	=126-
!	!	!LO:TX:t=P:problem=kreska pseudotaktowa	!	!LO:TX:t=P:problem=kreska pseudotaktowa	!	!LO:TX:t=P:problem=kreska pseudotaktowa	!
2.F/	spi-	1f,<	-tu	1A	-ste	1a	-te.
!LO:TX:t=P:problem=kreska pseudotaktowa	!	!	!	!	!	!	!
4G/	.	.	.	.	.	.	.
2A\	-ri-	2e\	S(an)-	1rb	.	1rff	.
2.B-\	-tu	2.d\	-cto	.	.	.	.
=127-	=127-	=127-	=127-	=127-	=127-	=127-	=127-
.	.	.	.	2r	.	2r	.
4A/	.	(4c/	.	.	.	.	.
4G/	.	4B-/	.	2g\	in	2dd\	in
!LO:TX:t=P:problem=kreska pseudotaktowa	!	!	!	!	!	!	!
4F/	.	4A/)	.	.	.	.	.
*	*ij	*	*	*	*	*	*
2.G/	Spi-	2.B-/	Spi-	2g\	glo-	2dd\	glo-
.	.	.	.	2g\	-ri-	2ee\	-ri-
4G/	-ri-	4B-/	-ri-	.	.	.	.
=128-	=128-	=128-	=128-	=128-	=128-	=128-	=128-
!LO:TX:t=P:problem=kreska pseudotaktowa	!	!LO:TX:t=P:problem=kreska pseudotaktowa	!	!	!	!LO:TX:t=P:problem=kreska pseudotaktowa	!
1D	-tu	1A	-tu	2.f\	-a	1ff	-a
*	*Xij	*	*	*	*	*	*
.	.	.	.	4g\	.	.	.
00r	.	1rg	.	2a\	De-	2ee\	De-
.	.	.	.	1b-\	.	2.dd\	.
=129-	=129-	=129-	=129-	=129-	=129-	=129-	=129-
.	.	2r	.	.	.	.	.
.	.	.	.	.	.	4cc\	.
.	.	2d\	in	1a	i	4b-/	.
.	.	.	.	.	.	4a/	-i
.	.	2d\	glo-	.	.	1b-	Pa-
.	.	2e\	.	2g\	P(a-	.	.
=130-	=130-	=130-	=130-	=130-	=130-	=130-	=130-
!	!	!	!	!LO:TX:t=P:problem=kreska pseudotaktowa	!	!	!
.	.	1f	-ri-	1a	-t)ris	2a,</	-tris
!	!	!	!	!	!	!LO:TX:t=P:problem=kreska pseudotaktowa	!
.	.	.	.	.	.	2dd\	a-
!LO:TX:t=P:problem=kreska pseudotaktowa	!	!	!	!	!	!	!
1r	.	2e\	-a	1rb	.	2cc\	.
.	.	2.d\	De-	.	.	1b-\	.
=131-	=131-	=131-	=131-	=131-	=131-	=131-	=131-
2rF	.	.	.	2r	.	.	.
.	.	4c/	.	.	.	.	.
!LO:TX:t=P:problem=kreska pseudotaktowa	!	!	!	!	!	!	!
2G/	in	4B-/	.	2d/	in	1a	.
!	!	!LO:TX:t=P:problem=kreska pseudotaktowa	!	!	!	!	!
.	.	4A/	-i	.	.	.	.
2G/	glo-	1B-	Pa-	2d/	glo-	.	.
!	!	!	!	!	!	!LO:TX:t=P:problem=kreska pseudotaktowa	!
2G/	-ri-	.	.	2e\	-ri-	2g/	.
=132-	=132-	=132-	=132-	=132-	=132-	=132-	=132-
!	!	!	!	!LO:TX:t=P:problem=kreska pseudotaktowa	!	!	!
2.F/	-a	2A,</	-tris	1f	-a	2a,/	-men
.	.	2d\	in	.	.	2a/	in
4E/	.	.	.	.	.	.	.
2F/	De-	2d\	glo-	1f	De-	2a/	glo-
!LO:TX:t=P:problem=kreska pseudotaktowa	!	!	!	!	!	!	!
2G/	.	2d\	-ri-	.	.	2b-\	-ri-
=133-	=133-	=133-	=133-	=133-	=133-	=133-	=133-
!	!	!	!	!	!	!LO:TX:t=P:problem=kreska pseudotaktowa	!
2A/	-i	2.c/	-a	2e\	-i	1cc	-a
1F	Pa-	.	.	1f	Pa-	.	.
!	!	!LO:TX:t=P:problem=kreska pseudotaktowa	!	!	!	!	!
.	.	4B-/	.	.	.	.	.
!	!	!LO:LB:g=original	!	!	!	!	!
.	.	2c\	De-	.	.	2a/	De-
!	!	!	!	!LO:TX:t=P:problem=kreska pseudotaktowa	!	!	!
4E/	.	2d\	-i	2f\	-tris	2b-\	.
4D/	.	.	.	.	.	.	.
=134-	=134-	=134-	=134-	=134-	=134-	=134-	=134-
1C	-tris	1e	Pa-	1g	A-	1cc	.
!	!	!LO:TX:t=P:problem=kreska pseudotaktowa	!	!	!	!	!
2.D/	a-	1d	.	1.f	.	2b-\	-i
!	!	!	!	!	!	!LO:TX:t=P::problem=kreska pseudotaktowa&colon;między nutą a kropką	!
.	.	.	.	.	.	2.a/	Pa-
!LO:TX:t=P:problem=kreska pseudotaktowa	!	!	!	!	!	!	!
4E/	.	.	.	.	.	.	.
!LO:LB:g=original	!	!	!	!	!	!	!
=135-	=135-	=135-	=135-	=135-	=135-	=135-	=135-
2F/	.	2c/	-tris	.	.	.	.
.	.	.	.	.	.	4g/	-tris
2G/	.	2B-/	A-	2e/	.	1g	A-
!LO:TX:t=P:problem=kreska pseudotaktowa	!	!	!	!LO:TX:t=P:problem=kreska pseudotaktowa	!	!	!
1D	-men	1A	.	1d	-men	.	.
!	!	!	!	!	!	!LO:TX:t=P:problem=# above	!
.	.	.	.	.	.	2f#X/	.
=136-	=136-	=136-	=136-	=136-	=136-	=136-	=136-
!	!	!LO:TX:t=P:problem=kreska pseudotaktowa	!	!	!	!LO:TX:t=P:problem=kreska pseudotaktowa	!
2rF	.	0G	-men	2rc	.	0g	-men
!LO:TX:t=P:problem=kreska pseudotaktowa	!	!	!	!	!	!	!
2G/	in	.	.	2d/	in	.	.
2G/	glo-	.	.	2d/	glo-	.	.
2G/	-ri-	.	.	2e\	-ri-	.	.
=137-	=137-	=137-	=137-	=137-	=137-	=137-	=137-
!	!	!	!	!LO:TX:t=P:problem=kreska pseudotaktowa	!	!	!
2.F/	-a	2r	.	1f	-a	2rg	.
.	.	2d\	in	.	.	2a/	in
!LO:TX:t=P:problem=kreska pseudotaktowa	!	!	!	!	!	!	!
4E/	.	.	.	.	.	.	.
2F/	De-	2d\	glo-	1f	De-	2a/	glo-
2G/	i	2d\	-ri-	.	.	2b-/	-ri-
=138-	=138-	=138-	=138-	=138-	=138-	=138-	=138-
!	!	!	!	!	!	!LO:TX:t=P:problem=kreska pseudotaktowa	!
2A\	Pa-	2.c/	-a	2e\	-i	1cc	-a
1F	-tris	.	.	1f	Pa-	.	.
.	.	4B-/	.	.	.	.	.
.	.	2c\	De-	.	.	2a/	De-
!	!	!LO:TX:t=P:problem=kreska pseudotaktowa	!	!LO:TX:t=P:problem=kreska pseudotaktowa	!	!	!
4E/	a-	2d\	-i	2f\	-tris	2b-\	.
!LO:TX:t=P:problem=kreska pseudotaktowa	!	!	!	!	!	!	!
4D/	.	.	.	.	.	.	.
=139-	=139-	=139-	=139-	=139-	=139-	=139-	=139-
1C	.	1e	Pa-	1g	A-	1cc	.
2.D/	.	1d	.	1.f	.	2b-/	-i
.	.	.	.	.	.	1a/	Pa-
4E/	.	.	.	.	.	.	.
=140-	=140-	=140-	=140-	=140-	=140-	=140-	=140-
2F/	.	2c/	-tris	.	.	.	.
2G/	.	2B-/	A-	2e\	.	1g	-tris
1D	.	1A	.	1d	.	.	.
.	.	.	.	.	.	2f#X/	A-
=141-	=141-	=141-	=141-	=141-	=141-	=141-	=141-
0Gl;	men.	0Bnl;	men.	0dl;	-men	0gl;	-men
==	==	==	==	==	==	==	==
*-	*-	*-	*-	*-	*-	*-	*-
!!!system-decoration: [g1]
!!!RDF**kern: > = above
!!!RDF**kern: < = below
!!!RDF**kern: l = terminal long
!!!ENC: Andrzej Kubiczek
!!!END: 2021-03-18
!!!ENC: Berenika Jozajtis
!!!END: 2021-03-02
